src/icons_unused/hds/ui/volume-mute.svg

<svg xmlns="http://www.w3.org/2000/svg" width="24" height="24" viewBox="0 0 24 24">
  <g fill="none" fill-rule="evenodd">
    <rect width="24" height="24"/>
    <path fill="currentColor" d="M15,2.5 L15,21.5 L9.273,17 L6,17 C3.23857625,17 1,14.7614237 1,12 C1,9.28538004 3.16333539,7.07603414 5.86004758,7.0019209 L9.273,7 L15,2.5 Z M13,6.8115 L10,8.926 L10,15.073 L13,17.188 L13,6.8115 Z M22.5,8.5 L24,10 L22,12 L24,14 L22.5,15.5 L20.5,13.5 L18.5,15.5 L17,14 L19,12 L17,10 L18.5,8.5 L20.5,10.5 L22.5,8.5 Z M8,9 L6.02744815,8.99981164 L5.91499246,9.00116602 C4.29498194,9.04568847 3,10.3746044 3,12 C3,13.6191985 4.28278744,14.9387859 5.88753087,14.9979308 L6,15 L8,15 L8,9 Z"/>
  </g>
</svg>

<svg viewBox="0 0 24 24" role="img" xmlns="http://www.w3.org/2000/svg"><g fill="none" fill-rule="evenodd"><path d="M0 0h24v24H0z" /><path fill="currentColor" d="M15 2.5v19L9.273 17H6a5 5 0 01-.14-9.998L9.273 7 15 2.5zm-2 4.311l-3 2.115v6.147l3 2.115V6.811zM22.5 8.5L24 10l-2 2 2 2-1.5 1.5-2-2-2 2L17 14l2-2-2-2 1.5-1.5 2 2 2-2zM8 9H6.027L5.915 9a3 3 0 00-.027 5.997L6 15h2V9z"/></g></svg>
